X:7438
T:The Walls of Liscarroll
O:england
M:6/8
L:1/8
Q:200
C:Trad Irish
R:jig
K:D
AGE DEG|A2 d d=c A|GEE =cEE|GAB =c2 G|
AGE DEG|A2 d d=cA|GEE =cEE|DED D3:|
def e3|ded d=cA|GEE =cEE|GAB =cAG|
def e3|d2 d d=cA|GEE =cEE|DED D3:|


